!!!SOCIAL_FUNCTION:	dream songs
!!!PDT:	1909
!!!OTL: No_118_Manido'_Listens_to_Me.krn
!!!REG: Great_Lakes
!!!LANG: Non-Tone
!!!LING_GROUP: Algonquin
**kern	**kern
*staff2	*staff1
*clefF4	*clefF4
*k[f#c#g#]	*k[f#c#g#]
*M3/4	*M3/4
8r	4e\
8GG#/	.
=1	=1
12GG#^/	2e\
12r	.
12GG#/	.
12GG#^/	.
12r	.
12GG#/	.
12GG#^/	8.e\L
12r	.
12GG#/	.
.	16c#\Jk
=2	=2
2.r	12c#^\L
.	[12A\
.	12A\J]
.	4A\
.	4c#\
=3	=3
2.r	2A\
.	8.A\L
.	16A\Jk
=4	=4
2.r	2A\
.	4e\
=5	=5
2.r	2e\
.	8.e\L
.	16c#\Jk
=6	=6
2.r	12c#^\L
.	[12A\
.	12A\J]
.	4A\
.	4c#\
=7	=7
2.r	2A\
.	8.A\L
.	16A\Jk
=8	=8
2.r	2A\
.	4c#\
=9	=9
2.r	2c#\
.	8.e\L
.	16c#\Jk
=10	=10
2.r	16c#\LK
.	8.A\J
.	4A\
.	4c#\
=11	=11
2.r	2A\
.	8.A\L
.	16F#\Jk
=12	=12
2.r	12E\L
.	[12E\
.	12E\J]
.	16E/LK
.	8.C#/J
.	16E/LK
.	8.C#/J
=13	=13
2.r	8.AA/L
.	16AA/Jk
.	[2AA/
=14	=14
2.r	4..AA/]
.	16e\
.	8.e\L
.	16e\Jk
=15	=15
2.r	2e\
.	8.e\L
.	16c#\Jk
=16	=16
2.r	12c#\L
.	[12A\
.	12A\J]
.	4A\
.	4c#\
=17	=17
2.r	2A\
.	8.A\L
.	16A\Jk
=18	=18
2.r	2A\
.	4c#\
=19	=19
2.r	2c#\
.	8.e\L
.	16c#\Jk
=20	=20
2.r	12c#\L
.	[12A\
.	12A\J]
.	4A\
.	4c#\
=21	=21
2.r	2A\
.	8.A\L
.	16F#\Jk
=22	=22
2.r	12E\L
.	[12E\
.	12E\J]
.	16E/LK
.	8.C#/J
.	16E/LK
.	8.C#/J
=23	=23
2.r	8.AA/L
.	16AA/Jk
.	[2AA/
=24	=24
*M2/4	*M2/4
2r	2AA/]
==:|!	==:|!
*-	*-
